!!!SOCIAL_FUNCTION:	miscellaneous songs
!!!PDT:	1958
!!!OTL: No_50_Song_of_a_Hunter.krn
!!!REG: Northern California
!!!LANG: Non-Tone
!!!LING_GROUP: Penutian
**kern
*staff1
=1-
*clefF4
*k[b-]
*M2/4
4c\
(8d\L
8c\J)
=2
*M5/8
8c\L
8G\
8G\
8F\J
8r
=3
*M2/4
4G\
8G\L
8F\J
=4
8C/L
8C/J
4C/
=5!|:
8.d\L
16e\Jk
4d\
=6
*M3/4
8d\L
16c\L
16c\JJ
4c\
4r
=7
*M2/4
16d\LK
8.d\J
16c\LK
8c\
16c\Jk
=8
*M5/8
8c\L
8G\J
4G\
8r
=9
*M2/4
12c\L
12c\
12c\J
8d\L
16c\L
16c\JJ
=10
*M5/8
8c\L
8G\
8G\
8F\J
8r
=11
*M2/4
4G\
8G\L
8F\J
=12
*M5/8
8C/L
8C/J
4C/
8r
=13
*M2/4
4c\
(8d\L
8c\J)
=14
*M5/8
(8c\L
8G\)
8G\
8F\J
8r
=15
*M2/4
4G\
8G\L
8F\J
=16
*M5/8
8C/L
8C/J
4C/
8r
=17
*M2/4
4c\
(8d\L
8c\J)
=18
*M5/8
8c\L
8G\
8G\
8F\J
8r
=19
*M2/4
4G\
8G\L
8F\J
=20
8C/L
8C/J
8C/
8r
==:|!
*-
